public/svgs/aboutus/letter2.svg

<svg width="56" height="56" viewBox="0 0 56 56" fill="none" xmlns="http://www.w3.org/2000/svg">
<g filter="url(#filter0_d_3628_1481)">
<path d="M37.8829 29.6339L32.3981 36.5698L29.9999 33.3151L27.1635 29.4658L31.1651 24.4055C32.7022 25.467 36.2667 28.2225 37.8829 29.6339ZM42.3326 20.807C41.8714 20.8991 41.4915 21.1221 41.2302 21.4525C40.9131 21.8535 40.7957 22.3697 40.8908 22.9462C40.9186 23.1101 40.9428 23.285 40.9654 23.4533C41.03 23.932 41.0963 24.4258 41.2626 24.9252C41.3396 25.1588 41.34 25.3011 41.3043 25.4046L41.1349 25.2706C40.638 24.8777 40.1428 24.4827 39.6476 24.0877C38.4665 23.1451 37.2454 22.1709 36.014 21.24C35.1504 20.5861 34.7368 20.2351 34.795 19.4344C34.8522 18.6482 34.5555 18.1946 34.2951 17.9528C33.8899 17.5759 33.2998 17.4394 32.5445 17.5486C31.8428 17.6506 31.1104 17.8173 30.1686 18.0887C29.6196 18.2464 29.0547 18.4395 28.6951 18.8941C28.1758 19.5509 28.3747 20.4027 28.4592 20.7654C28.6456 21.5595 28.4885 22.1606 27.8976 22.9079C27.8102 23.0184 27.712 23.134 27.5984 23.258C27.2948 23.5944 26.9855 23.9639 26.6243 24.4207C26.3821 24.727 26.1451 25.0374 25.9147 25.3376C25.6883 25.6324 25.4556 25.9376 25.2242 26.2302L24.8913 26.6512L23.7805 25.3297L20.5144 21.4417L20.8256 21.0481L22.6985 18.6819L24.8192 16.0002L27.7236 12.3251C27.8435 12.1735 27.961 12.027 28.0786 11.8805L28.0861 11.871C28.2085 11.7163 28.3285 11.5667 28.4484 11.4151C28.7122 11.0815 28.9121 10.8222 29.0987 10.5711L29.1426 10.5134C29.2907 10.3175 29.476 10.0723 29.5847 9.75967C29.7698 9.22695 29.6565 8.69088 29.2721 8.28771C28.8182 7.81242 27.9984 7.54223 27.3616 7.65958C26.1412 7.88516 24.8882 8.18239 23.5334 8.56507C23.1729 8.6683 22.7186 8.83597 22.4057 9.2317C22.0362 9.69901 22.0255 10.2534 22.0683 10.7834C22.1196 11.3936 22.1893 12.1038 22.3869 12.8058C22.4843 13.1565 22.469 13.401 22.1177 13.8451L22.1036 13.863C20.2497 16.1792 18.4108 18.5004 16.6871 20.6801L15.9391 21.6282L15.1909 22.5743C14.0981 23.9563 12.9268 25.4352 11.7707 26.8885C11.3094 27.4697 10.7915 28.0403 10.2896 28.5928C10.1178 28.782 9.94782 28.9709 9.77788 29.1598C9.47552 29.4989 9.15702 29.839 8.82082 30.1992C8.65794 30.3749 8.48712 30.5563 8.30904 30.749L8.04869 31.0307C8.03681 31.0435 8.02493 31.0564 8.01495 31.069C7.89093 31.2258 7.84328 31.4311 7.88527 31.6268C7.93135 31.8411 8.07928 32.0197 8.28117 32.104L8.63285 32.2521L9.07907 32.4408L10.5867 33.0787L10.7755 33.1579C11.0539 33.2754 11.3757 33.1929 11.563 32.9561L11.6895 32.7961L17.1435 25.8992L21.4861 31.02L18.6966 34.2727L16.9589 36.2993L16.7217 36.5754C16.7159 36.5827 16.7099 36.5882 16.704 36.5956C16.5775 36.7556 16.5312 36.9635 16.5765 37.1636C16.6257 37.3719 16.7701 37.5442 16.9652 37.6284L17.3012 37.7726C17.4571 37.8394 17.6075 37.9002 17.7528 37.9587C18.0364 38.0717 18.303 38.1782 18.5261 38.305C19.3724 38.7861 20.1693 38.6328 20.7686 37.875C20.8185 37.8119 20.8686 37.742 20.9216 37.6642C21.7453 36.456 22.6266 35.2507 23.4798 34.0831L23.6667 33.8272C25.4489 36.1192 27.1756 38.5332 28.9229 41.1723L25.7067 44.7958L24.9368 45.6633L24.7055 45.9235C24.6969 45.9321 24.6886 45.9426 24.6811 45.9521C24.5605 46.1047 24.5119 46.3024 24.5486 46.4939C24.5877 46.6976 24.7191 46.8734 24.9039 46.9664L25.2147 47.125C25.307 47.1706 25.3987 47.2191 25.4893 47.2668L25.4953 47.2699C25.7243 47.3894 25.9593 47.5119 26.212 47.6229C26.4698 47.7361 26.7242 47.8277 26.9716 47.9173C27.0753 47.9548 27.1761 47.9918 27.278 48.0296L27.4729 48.1033C27.7476 48.2059 28.0545 48.1185 28.2343 47.8912C28.2426 47.8806 28.251 47.8701 28.2574 47.8598L28.3769 47.6892C28.5923 47.3822 28.8001 47.0761 29.0015 46.7804C29.4269 46.1537 29.8278 45.5623 30.2654 45.0068C33.4867 40.9203 36.6283 36.9453 39.2766 33.5963C40.4477 32.1154 41.6195 30.6335 42.7905 29.1527C43.9624 27.6708 45.1343 26.1889 46.3053 24.708L46.9886 23.844C47.0427 23.7755 47.1033 23.7054 47.1661 23.6303C47.2357 23.5467 47.3087 23.4608 47.3811 23.3692C47.5368 23.1724 47.6521 22.9984 47.7452 22.8223C47.9023 22.524 48.3798 21.6152 47.8769 20.9421C47.4862 20.4193 46.7154 20.0852 46.0816 20.1639C44.7589 20.3308 43.4528 20.5826 42.3326 20.807Z" fill="black"/>
</g>
<defs>
<filter id="filter0_d_3628_1481" x="0.871094" y="0.632812" width="54.2305" height="54.5137" filterUnits="userSpaceOnUse" color-interpolation-filters="sRGB">
<feFlood flood-opacity="0" result="BackgroundImageFix"/>
<feColorMatrix in="SourceAlpha" type="matrix" values="0 0 0 0 0 0 0 0 0 0 0 0 0 0 0 0 0 0 127 0" result="hardAlpha"/>
<feOffset/>
<feGaussianBlur stdDeviation="3.5"/>
<feComposite in2="hardAlpha" operator="out"/>
<feColorMatrix type="matrix" values="0 0 0 0 0.94902 0 0 0 0 0.866667 0 0 0 0 0.486275 0 0 0 1 0"/>
<feBlend mode="normal" in2="BackgroundImageFix" result="effect1_dropShadow_3628_1481"/>
<feBlend mode="normal" in="SourceGraphic" in2="effect1_dropShadow_3628_1481" result="shape"/>
</filter>
</defs>
</svg>

<svg xmlns="http://www.w3.org/2000/svg" width="56" height="56" fill="none" viewBox="0 0 56 56"><g filter="url(#a)"><path fill="#000" d="m37.883 29.634-5.485 6.936L30 33.315l-2.837-3.85 4.002-5.06c1.537 1.062 5.102 3.817 6.718 5.229m4.45-8.827c-.462.092-.841.315-1.103.646-.317.4-.434.917-.34 1.493.029.164.053.339.075.507.065.479.131.973.298 1.472.077.234.077.376.041.48l-.17-.134q-.744-.59-1.486-1.183a177 177 0 0 0-3.634-2.848c-.864-.654-1.277-1.005-1.219-1.806.057-.786-.24-1.24-.5-1.481-.405-.377-.995-.514-1.75-.404-.702.102-1.435.268-2.376.54-.55.157-1.114.35-1.474.805-.52.657-.32 1.509-.236 1.871.187.794.03 1.396-.561 2.143q-.13.165-.3.35a23 23 0 0 0-.974 1.163c-.242.306-.479.616-.71.917-.226.294-.458.6-.69.892l-.333.421-1.11-1.321-3.267-3.888.312-.394 1.872-2.366L24.82 16l2.905-3.675.355-.444.007-.01.362-.456c.264-.333.464-.593.65-.844l.045-.058c.148-.195.333-.44.442-.753a1.4 1.4 0 0 0-.313-1.472c-.454-.476-1.274-.746-1.91-.628a42 42 0 0 0-3.829.905c-.36.103-.814.271-1.127.667-.37.467-.38 1.021-.338 1.551.052.61.121 1.32.319 2.023.097.35.082.595-.27 1.04l-.013.017a1484 1484 0 0 0-5.417 6.817l-.748.948-.748.946a1920 1920 0 0 1-3.42 4.314c-.462.582-.98 1.152-1.481 1.705l-.512.567c-.302.339-.621.679-.957 1.04q-.245.261-.512.549l-.26.282-.034.038a.673.673 0 0 0 .266 1.035l.352.148.446.189 1.508.638.188.079a.67.67 0 0 0 .788-.202l.127-.16 5.454-6.897 4.342 5.121-2.79 3.253-1.737 2.026-.237.276-.018.02a.673.673 0 0 0 .261 1.033l.336.145q.234.098.452.186c.283.113.55.22.773.346.846.481 1.643.328 2.243-.43q.074-.094.153-.21c.823-1.209 1.705-2.414 2.558-3.582l.187-.256a118 118 0 0 1 5.256 7.345l-3.216 3.624-.77.867-.232.26-.024.03a.67.67 0 0 0 .223 1.013l.31.159q.14.07.275.142l.006.003c.23.12.464.242.717.353.258.113.512.205.76.294l.306.113.195.073a.67.67 0 0 0 .761-.212q.014-.015.023-.031l.12-.17q.322-.464.625-.91c.425-.626.826-1.218 1.263-1.773 3.222-4.087 6.363-8.062 9.012-11.41q1.756-2.223 3.514-4.444l3.514-4.445.684-.864q.082-.102.177-.214.106-.125.215-.26c.156-.198.271-.372.364-.548.157-.298.635-1.207.132-1.88-.39-.523-1.162-.857-1.795-.778-1.323.167-2.63.419-3.75.643"/></g><defs><filter id="a" width="54.23" height="54.514" x=".871" y=".633" color-interpolation-filters="sRGB" filterUnits="userSpaceOnUse"><feFlood flood-opacity="0" result="BackgroundImageFix"/><feColorMatrix in="SourceAlpha" result="hardAlpha" values="0 0 0 0 0 0 0 0 0 0 0 0 0 0 0 0 0 0 127 0"/><feOffset/><feGaussianBlur stdDeviation="3.5"/><feComposite in2="hardAlpha" operator="out"/><feColorMatrix values="0 0 0 0 0.94902 0 0 0 0 0.866667 0 0 0 0 0.486275 0 0 0 1 0"/><feBlend in2="BackgroundImageFix" result="effect1_dropShadow_3628_1481"/><feBlend in="SourceGraphic" in2="effect1_dropShadow_3628_1481" result="shape"/></filter></defs></svg>
